X:90
T: Parade of Stars
C: Peter Fitzgerald
Z: B.Black
R: reel
M: 4/4
L: 1/8
K: Dmix
afdc Addc | Adfd AdcB | c2 Gc A2 GA | c2 GA cdeg |
afdc Addc | Adfd fgaf | e2 fd c2 Gc | A2 AG Ad d2 :|
ad d2 fd d2 | dAGE FD D2 | DGFD ADFA | c2 ec Gceg |
abaf ge e2 | afdB cABG | A2 fd e2 eg | fdAG Ad d2 :|
